packages/design-assets/icons/16px/X.svg

<?xml version="1.0" encoding="UTF-8"?>
<svg width="16px" height="16px" viewBox="0 0 16 16" version="1.1" xmlns="http://www.w3.org/2000/svg" xmlns:xlink="http://www.w3.org/1999/xlink">
    <!-- Generator: Sketch 54.1 (76490) - https://sketchapp.com -->
    <title>Icons/16px/X</title>
    <desc>Created with Sketch.</desc>
    <g id="Icons/16px/X" stroke="none" stroke-width="1" fill="none" fill-rule="evenodd">
        <path d="M12.947693,11.5334794 C13.3719571,11.9577435 13.3719571,12.5234289 12.947693,12.947693 C12.5234289,13.3719571 11.9577435,13.3719571 11.5334794,12.947693 L7.99794552,9.41215908 L4.46241161,12.947693 C4.03814755,13.3719571 3.47246212,13.3719571 3.04819805,12.947693 C2.62393398,12.5234289 2.62393398,11.9577435 3.04819805,11.5334794 L6.58373196,7.99794552 L3.04819805,4.46241161 C2.62393398,4.03814755 2.62393398,3.47246212 3.04819805,3.04819805 C3.47246212,2.62393398 4.03814755,2.62393398 4.46241161,3.04819805 L7.99794552,6.58373196 L11.5334794,3.04819805 C11.9577435,2.62393398 12.5234289,2.62393398 12.947693,3.04819805 C13.3719571,3.47246212 13.3719571,4.03814755 12.947693,4.46241161 L9.41215908,7.99794552 L12.947693,11.5334794 Z" id="Icon" fill="#818F99"></path>
    </g>
</svg>

<svg width="16" height="16" xmlns="http://www.w3.org/2000/svg"><path d="M12.948 11.533c.424.425.424.99 0 1.415-.425.424-.99.424-1.415 0L7.998 9.412l-3.536 3.536c-.424.424-.99.424-1.414 0-.424-.425-.424-.99 0-1.415l3.536-3.535-3.536-3.536c-.424-.424-.424-.99 0-1.414.424-.424.99-.424 1.414 0l3.536 3.536 3.535-3.536c.425-.424.99-.424 1.415 0 .424.424.424.99 0 1.414L9.412 7.998l3.536 3.535z" fill="#818F99" fill-rule="evenodd"/></svg>
